assets/images/dashboard/dashboard_empty_home.svg

<svg width="121" height="96" viewBox="0 0 121 96" fill="none" xmlns="http://www.w3.org/2000/svg">
<path opacity="0.2" d="M69.804 29.686H109.02" stroke="white"/>
<path opacity="0.2" d="M69.804 57.137L105.882 57.137" stroke="white"/>
<path opacity="0.2" d="M69.804 16.3525H109.02" stroke="white"/>
<path opacity="0.2" d="M69.804 43.8037H109.02" stroke="white"/>
<path opacity="0.2" d="M58.8235 1.45068V75.5683H120V1.45068H58.8235Z" stroke="white"/>
<path opacity="0.2" d="M41.7254 95.5682V70.1011H58.6665V95.5682H79.843V61.6121H92.5489L50.196 23.4114L7.84302 61.6121H20.5489V95.5682H41.7254Z" fill="url(#paint0_linear_2342_50121)"/>
<path d="M21.1994 33.6119H18.0163C17.5942 33.6119 17.1894 33.4471 16.8909 33.1537C16.5925 32.8604 16.4248 32.4625 16.4248 32.0476C16.4248 31.6328 16.5925 31.2349 16.8909 30.9415C17.1894 30.6482 17.5942 30.4834 18.0163 30.4834H25.9741V27.3548H21.1994V24.2263H18.0163V27.3548C16.75 27.3548 15.5356 27.8493 14.6402 28.7293C13.7447 29.6094 13.2417 30.803 13.2417 32.0476C13.2417 33.2922 13.7447 34.4859 14.6402 35.3659C15.5356 36.246 16.75 36.7404 18.0163 36.7404H21.1994C21.6215 36.7404 22.0263 36.9052 22.3248 37.1986C22.6233 37.4919 22.791 37.8898 22.791 38.3047C22.791 38.7195 22.6233 39.1174 22.3248 39.4108C22.0263 39.7041 21.6215 39.8689 21.1994 39.8689H13.2417V42.9975H18.0163V46.126H21.1994V42.9975C22.4657 42.9975 23.6802 42.503 24.5756 41.623C25.471 40.7429 25.9741 39.5493 25.9741 38.3047C25.9741 37.0601 25.471 35.8664 24.5756 34.9864C23.6802 34.1063 22.4657 33.6119 21.1994 33.6119Z" fill="#B99855"/>
<path d="M39.2157 35.1762C39.2157 31.2981 38.0657 27.5072 35.9112 24.2827C33.7566 21.0582 30.6943 18.545 27.1114 17.0609C23.5286 15.5769 19.5861 15.1886 15.7825 15.9451C11.979 16.7017 8.48522 18.5692 5.74301 21.3114C3.0008 24.0536 1.13334 27.5474 0.376768 31.3509C-0.379805 35.1545 0.00849577 39.0969 1.49257 42.6798C2.97664 46.2627 5.48982 49.325 8.71432 51.4795C11.9388 53.6341 15.7298 54.784 19.6078 54.784C24.8082 54.784 29.7955 52.7182 33.4727 49.041C37.1499 45.3639 39.2157 40.3765 39.2157 35.1762ZM19.6078 51.7675C16.3264 51.7675 13.1187 50.7944 10.3902 48.9713C7.66183 47.1483 5.53528 44.5571 4.27953 41.5254C3.02378 38.4937 2.69522 35.1578 3.33539 31.9394C3.97557 28.721 5.55574 25.7648 7.87606 23.4444C10.1964 21.1241 13.1527 19.5439 16.3711 18.9038C19.5894 18.2636 22.9254 18.5921 25.957 19.8479C28.9887 21.1036 31.5799 23.2302 33.403 25.9586C35.226 28.687 36.1991 31.8948 36.1991 35.1762C36.1991 39.5765 34.4511 43.7965 31.3396 46.908C28.2282 50.0195 24.0081 51.7675 19.6078 51.7675Z" fill="#B99855"/>
<path d="M91.4645 59.5223L49.8041 22.6269" stroke="#A5D2DC" stroke-width="2" stroke-linecap="square"/>
<line x1="9.48179" y1="58.8617" x2="49.568" y2="22.5572" stroke="#A5D2DC" stroke-width="2" stroke-linecap="square"/>
<line x1="12.5491" y1="95.0684" x2="87.8432" y2="95.0684" stroke="white"/>
<defs>
<linearGradient id="paint0_linear_2342_50121" x1="50.196" y1="23.4114" x2="50.196" y2="95.5682" gradientUnits="userSpaceOnUse">
<stop offset="0.549839" stop-color="white"/>
<stop offset="1" stop-color="white" stop-opacity="0"/>
</linearGradient>
</defs>
</svg>

<svg width="121" height="96" viewBox="0 0 121 96" fill="none" xmlns="http://www.w3.org/2000/svg"><path opacity=".2" d="M69.804 29.686h39.216M69.804 57.137h36.078M69.804 16.352h39.216M69.804 43.804h39.216M58.824 1.45v74.118H120V1.451H58.824Z" stroke="#fff"/><path opacity=".2" d="M41.725 95.568V70.101h16.941v25.467h21.177V61.612h12.706l-42.353-38.2-42.353 38.2h12.706v33.956h21.176Z" fill="url(#a)"/><path d="M21.2 33.612h-3.184c-.422 0-.827-.165-1.125-.458a1.55 1.55 0 0 1-.466-1.106c0-.415.168-.813.466-1.107a1.606 1.606 0 0 1 1.125-.458h7.958v-3.128H21.2v-3.129h-3.183v3.129c-1.266 0-2.48.494-3.376 1.374a4.652 4.652 0 0 0-1.398 3.319c0 1.244.503 2.438 1.398 3.318a4.817 4.817 0 0 0 3.376 1.374H21.2c.422 0 .827.165 1.126.459.298.293.466.69.466 1.106 0 .414-.168.812-.466 1.106a1.606 1.606 0 0 1-1.126.458h-7.957v3.129h4.774v3.128H21.2v-3.128a4.82 4.82 0 0 0 3.377-1.375 4.653 4.653 0 0 0 1.398-3.318 4.652 4.652 0 0 0-1.398-3.319 4.817 4.817 0 0 0-3.377-1.374Z" fill="#B99855"/><path d="M39.216 35.176a19.608 19.608 0 1 0-39.216 0 19.608 19.608 0 0 0 39.216 0ZM19.608 51.767a16.591 16.591 0 1 1 0-33.182 16.591 16.591 0 0 1 0 33.182Z" fill="#B99855"/><path d="m91.465 59.522-41.66-36.895M9.482 58.862l40.086-36.305" stroke="#A5D2DC" stroke-width="2" stroke-linecap="square"/><path stroke="#fff" d="M12.549 95.068h75.294"/><defs><linearGradient id="a" x1="50.196" y1="23.411" x2="50.196" y2="95.568" gradientUnits="userSpaceOnUse"><stop offset=".55" stop-color="#fff"/><stop offset="1" stop-color="#fff" stop-opacity="0"/></linearGradient></defs></svg>
